src/assets/icons/MyVlog_Selected.svg

<svg width="25" height="27" viewBox="0 0 25 27" fill="none" xmlns="http://www.w3.org/2000/svg">
<path d="M22.9769 2.42699L23.043 2.63879L23.7738 5.18303C23.8399 5.41367 23.8204 5.66047 23.7186 5.87779C23.6169 6.09511 23.4399 6.26823 23.2204 6.36514L23.0934 6.41147L8.8935 10.482H23.6665C23.9066 10.4824 24.1384 10.5698 24.319 10.728C24.4996 10.8862 24.6167 11.1045 24.6488 11.3424L24.658 11.4748V22.7253C24.6581 23.6524 24.3045 24.5445 23.6693 25.2197C23.0342 25.8949 22.1654 26.3024 21.2401 26.359L21.0177 26.3657H4.47218C3.54517 26.3657 2.65307 26.0121 1.97784 25.377C1.30261 24.7418 0.895119 23.873 0.838487 22.9477L0.831868 22.724V11.6151L0.140871 9.20458C-0.114508 8.31345 -0.0203039 7.35847 0.404267 6.53442C0.828839 5.71037 1.55179 5.07933 2.42566 4.77002L2.63746 4.70119L18.541 0.140872C19.4321 -0.114508 20.3871 -0.0203041 21.2111 0.404267C22.0352 0.828838 22.6662 1.55179 22.9755 2.42566M22.6711 12.4663H2.81749V22.724C2.81749 23.5236 3.38538 24.1907 4.13859 24.3443L4.30274 24.3708L4.47218 24.3787H21.019C21.4285 24.3786 21.8233 24.2267 22.1272 23.9523C22.4311 23.678 22.6225 23.3007 22.6645 22.8935L22.6724 22.724L22.6711 12.4663ZM5.16317 6.04347L3.18285 6.61268C2.78953 6.72553 2.45199 6.98012 2.23538 7.32727C2.01878 7.67442 1.93849 8.08952 2.01 8.4924L2.04972 8.65787L2.50509 10.2477L2.89559 10.1352L5.16317 6.04347ZM11.4589 4.2392L7.8623 5.2704L5.59339 9.36078L9.19134 8.3309L11.4589 4.2392ZM17.7573 2.43228L14.1594 3.46481L11.8918 7.55519L15.4871 6.52531L17.7573 2.43228ZM20.2023 2.12385L18.1889 5.75092L21.5896 4.77532L21.1342 3.18682C21.067 2.95181 20.9486 2.7346 20.7875 2.5508C20.6263 2.36701 20.4265 2.2212 20.2023 2.12385Z" fill="black"/>
</svg>

<svg xmlns="http://www.w3.org/2000/svg" width="25" height="27" fill="none" viewBox="0 0 25 27"><path fill="#000" d="m22.977 2.427.066.212.73 2.544a.99.99 0 0 1-.553 1.182l-.127.046-14.2 4.071h14.773a.99.99 0 0 1 .983.86l.009.133v11.25a3.64 3.64 0 0 1-3.418 3.634l-.222.007H4.472a3.64 3.64 0 0 1-3.634-3.418l-.006-.224V11.615L.14 9.205A3.64 3.64 0 0 1 2.426 4.77l.211-.069L18.541.141a3.64 3.64 0 0 1 4.435 2.285m-.305 10.04H2.817v10.258c0 .8.568 1.467 1.322 1.62l.164.027.17.008h16.546a1.654 1.654 0 0 0 1.646-1.486l.007-.169zM5.163 6.043l-1.98.57a1.655 1.655 0 0 0-1.173 1.88l.04.165.455 1.59.39-.113zM11.46 4.24 7.862 5.27 5.593 9.36l3.598-1.03zm6.298-1.807L14.16 3.465l-2.267 4.09 3.595-1.03zm2.445-.308L18.19 5.75l3.4-.976-.455-1.588a1.66 1.66 0 0 0-.932-1.063"/></svg>
